local/share/icons/dracula-icons-main/16/places/folder-image.svg

<?xml version="1.0" encoding="UTF-8"?>
<svg xmlns="http://www.w3.org/2000/svg" xmlns:xlink="http://www.w3.org/1999/xlink" width="16" height="16" viewBox="0 0 16 16">
<path fill-rule="nonzero" fill="rgb(100%, 100%, 100%)" fill-opacity="1" d="M 6 6.5 L 4 11 C 4 11.554688 4.355469 12 4.800781 12 L 11.199219 12 C 11.644531 12 12 11.554688 12 11 L 10.398438 7.558594 L 8.800781 10 Z M 6 6.5 "/>
<path fill-rule="nonzero" fill="rgb(100%, 100%, 100%)" fill-opacity="1" d="M 3 1 C 1.890625 1 1 1.890625 1 3 L 1 13 C 1 14.109375 1.890625 15 3 15 L 13 15 C 14.109375 15 15 14.109375 15 13 L 15 3 C 15 1.890625 14.109375 1 13 1 Z M 3 3 L 13 3 L 13 13 L 3 13 Z M 3 3 "/>
</svg>

<svg width="16" height="16" version="1.1" viewBox="0 0 16 16" xmlns="http://www.w3.org/2000/svg">
 <defs>
  <style id="current-color-scheme" type="text/css">.ColorScheme-Text { color:#FFFFFF; } .ColorScheme-Highlight { color:#5294e2; }</style>
 </defs>
 <path style="fill:currentColor" class="ColorScheme-Text" d="m6 6.5-2 4.5c0 0.554 0.3568 1 0.8 1h6.4c0.4432 0 0.8-0.446 0.8-1l-1.6-3.4395-1.6 2.4395z"/>
 <path style="fill:currentColor" class="ColorScheme-Text" d="m3 1c-1.108 0-2 0.892-2 2v10c0 1.108 0.892 2 2 2h10c1.108 0 2-0.892 2-2v-10c0-1.108-0.892-2-2-2h-10zm0 2h10v10h-10v-10z"/>
</svg>
